X:1
T:Title
%%score ( 1 2 ) { 3 | 4 }
L:1/8
Q:1/4=95
M:6/8
K:D
V:1 treble nm="Grand Piano, Soprano"
V:2 treble 
V:3 bass nm="Choir Pad, At Christmas Time"
V:4 bass 
V:1
 [FA]>[GB][FA] [DF]2 [A,D] | [CE]2 [CF] D3 | [Fd]>[Ge][Fd] [FA]2 [DF] | [CE]2 [CA] [DF]2 [DF] | %4
w: By~Philip~Paul~Bliss * * * *||||
 [EG]2 [FA] [EG][CE][CE] | [DF]2 [GB] [FA]2 [FA] | [EG]2 [EA] [EG][DF][CE] | %7
w: |||
 [DF][Fd][GB] [FA]2 [DF] | [CE]2 [CA] [DF]2 [Fd] | cB[Gc] [Fd]3- | [Fd]6 |] %11
w: ||||
V:2
 x6 | x6 | x6 | x6 | x6 | x6 | x6 | x6 | x6 | .G3 z3 | x6 |] %11
V:3
 D>DD A,2 F, | G,2 A, F,3 | A,>A,A, D2 A, | G,2 E, D,2 A, | A,2 A, A,2 A, | A,2[K:treble] D D2 D | %6
 C2 C[K:bass] A,2 A, | A,2 D D2 A, | G,2 E, D,2 A, | A,2 A, A,3- | A,6 |] %11
V:4
 D,>D,D, D,2 D, | A,,2 A,, D,3 | D,>D,D, D,2 D, | A,,2 A,, z2 D, | A,,2 A,, A,,2 A,, | %5
 D,2 D, D,2 D, | A,,2 A,, A,,2 A,, | D,2 D, D,2 D, | A,,2 A,, z2 D, | z3 D,3- | D,6 |] %11

